X: 1
T:B413-  The Scotch Wedding, c 1710.
Q:1/4=120
L:1/8
M:9/8
K:F
f|f3/2g/f f3/2g/f edc|d3/2e/d e2f g2f|f3/2g/f f3/2g/f e3/2d/c|\
d3/2=e/d c2AG2F|Fcc c3/2d/c cAF|G3/2A/G B2c d3|\
Fcc cdc cAF|GAG A2GF2|]
